src/assets/images/User_Configuration.svg

<svg width="194" height="125" viewBox="0 0 194 125" fill="none" xmlns="http://www.w3.org/2000/svg">
<g clip-path="url(#clip0_182_7133)">
<path d="M194 0.11055H0.0827637V125H194V0.11055Z" fill="#E6E6E6"/>
<path d="M188.455 15.7748H5.62793V117.612H188.455V15.7748Z" fill="white"/>
<path d="M193.917 0H0V8.2845H193.917V0Z" fill="#6C63FF"/>
<path d="M6.12212 5.77095C6.96541 5.77095 7.64903 5.08349 7.64903 4.23548C7.64903 3.38746 6.96541 2.70001 6.12212 2.70001C5.27883 2.70001 4.59521 3.38746 4.59521 4.23548C4.59521 5.08349 5.27883 5.77095 6.12212 5.77095Z" fill="white"/>
<path d="M11.9178 5.77095C12.7611 5.77095 13.4447 5.08349 13.4447 4.23548C13.4447 3.38746 12.7611 2.70001 11.9178 2.70001C11.0745 2.70001 10.3909 3.38746 10.3909 4.23548C10.3909 5.08349 11.0745 5.77095 11.9178 5.77095Z" fill="white"/>
<path d="M17.7137 5.77095C18.557 5.77095 19.2406 5.08349 19.2406 4.23548C19.2406 3.38746 18.557 2.70001 17.7137 2.70001C16.8704 2.70001 16.1868 3.38746 16.1868 4.23548C16.1868 5.08349 16.8704 5.77095 17.7137 5.77095Z" fill="white"/>
<path d="M63.8809 24.1508H28.1226V63.1628H63.8809V24.1508Z" fill="#E6E6E6"/>
<path d="M114.92 24.1508H79.1619V63.1628H114.92V24.1508Z" fill="#E6E6E6"/>
<path d="M165.959 24.1508H130.201V63.1628H165.959V24.1508Z" fill="#E6E6E6"/>
<path d="M63.8809 70.2243H28.1226V109.236H63.8809V70.2243Z" fill="#E6E6E6"/>
<path d="M114.92 70.2243H79.1619V109.236H114.92V70.2243Z" fill="#E6E6E6"/>
<path d="M165.959 70.2243H130.201V109.236H165.959V70.2243Z" fill="#E6E6E6"/>
<path d="M42.0123 47.7402C45.3506 47.7402 48.0569 45.0188 48.0569 41.6618C48.0569 38.3048 45.3506 35.5834 42.0123 35.5834C38.674 35.5834 35.9678 38.3048 35.9678 41.6618C35.9678 45.0188 38.674 47.7402 42.0123 47.7402Z" fill="#FFB9B9"/>
<path d="M39.6511 46.3156C39.6511 46.3156 40.4067 49.9246 40.4067 50.3045C40.4067 50.6844 43.9956 52.394 43.9956 52.394L47.2068 51.8242L48.3402 48.405C48.3402 48.405 46.4512 45.5558 46.4512 44.4161L39.6511 46.3156Z" fill="#FFB9B9"/>
<path d="M36.7705 36.7646C36.7705 36.7646 38.6896 32.5832 42.3679 33.5481C46.0462 34.5131 48.1253 35.9605 48.2852 37.4079C48.4451 38.8553 48.2052 41.0264 48.2052 41.0264C48.2052 41.0264 47.8054 38.0512 45.2466 38.6945C42.6877 39.3377 38.6896 38.8553 38.6896 38.8553L38.0499 44.6449C38.0499 44.6449 37.3302 43.5996 36.5306 44.2429C35.7309 44.8862 34.2116 38.0512 36.7705 36.7646Z" fill="#2F2E41"/>
<path d="M61.1841 61.7019L59.6743 54.8625C58.917 52.5827 57.0298 50.6848 57.0298 50.6848L47.7145 47.3905H47.7122C47.694 48.2185 47.4164 49.0197 46.919 49.6798C46.4216 50.3399 45.7296 50.8253 44.9418 51.0668C42.1073 52.0145 40.156 48.8204 40.156 48.8204L32.2817 54.8625C32.2817 54.8625 29.8271 56.9537 30.017 60.9427L29.7559 63.1628H61.9105L61.1841 61.7019Z" fill="#6C63FF"/>
<path d="M92.915 50.7693C97.4461 50.7693 101.119 46.8482 101.119 42.0113C101.119 37.1744 97.4461 33.2533 92.915 33.2533C88.3839 33.2533 84.7107 37.1744 84.7107 42.0113C84.7107 46.8482 88.3839 50.7693 92.915 50.7693Z" fill="#2F2E41"/>
<path d="M100.194 55.2646C102.578 55.2646 104.511 53.3214 104.511 50.9243C104.511 48.5273 102.578 46.5841 100.194 46.5841C97.8108 46.5841 95.8784 48.5273 95.8784 50.9243C95.8784 53.3214 97.8108 55.2646 100.194 55.2646Z" fill="#2F2E41"/>
<path d="M97.1887 45.1116L99.5009 51.1568L93.6435 53.6371L93.1291 52.4647L91.3311 48.3668L97.1887 45.1116Z" fill="#9F616A"/>
<path d="M92.5642 49.0642C95.4162 49.0642 97.7281 46.7393 97.7281 43.8714C97.7281 41.0035 95.4162 38.6786 92.5642 38.6786C89.7123 38.6786 87.4004 41.0035 87.4004 43.8714C87.4004 46.7393 89.7123 49.0642 92.5642 49.0642Z" fill="#9F616A"/>
<path d="M88.3436 43.3019C91.5892 41.124 92.5595 40.6033 96.2797 41.4446L96.5028 35.9868L86.8892 38.0148L88.3436 43.3019Z" fill="#2F2E41"/>
<path d="M109.211 55.6503L109.068 55.667C109.065 55.6618 109.061 55.657 109.057 55.6526C108.492 55.0845 105.795 54.0508 103.784 53.3346H103.782C102.505 52.8787 101.505 52.5516 101.505 52.5516L99.0743 50.0379C98.4618 50.7302 97.1681 51.2649 95.9384 51.6421C94.997 51.9287 94.0394 52.1582 93.0707 52.3296H93.0683L92.565 53.9458C92.565 53.9458 86.8605 58.2881 86.4 58.7513H86.3976V58.756C86.3608 58.8088 86.3456 58.8737 86.3549 58.9375V58.9494C86.0671 60.3354 85.9192 61.747 85.9133 63.1628H110.754V61.6971C110.754 59.6823 109.211 55.6503 109.211 55.6503Z" fill="#575A89"/>
<path d="M154.89 63.1629H142.607L141.93 56.4524L141.89 56.0441L141.807 55.2349L141.468 51.8522L141.043 55.4855L140.145 63.1629H137.914L137.997 60.7732L138.08 58.3502L138.116 57.3738L138.574 44.0913C138.539 41.9864 139.201 39.9297 140.456 38.245C141.153 37.3325 142.053 36.5964 143.083 36.0953C144.113 35.5943 145.245 35.3421 146.389 35.3588C147.556 35.355 148.708 35.6231 149.755 36.1421C150.802 36.661 151.715 37.4168 152.423 38.35C153.721 40.0516 154.415 42.1406 154.396 44.2847L154.607 52.3249L154.89 63.1629Z" fill="#2F2E41"/>
<path d="M146.389 48.8444C149.373 48.8444 151.791 46.4121 151.791 43.4116C151.791 40.4111 149.373 37.9787 146.389 37.9787C143.405 37.9787 140.986 40.4111 140.986 43.4116C140.986 46.4121 143.405 48.8444 146.389 48.8444Z" fill="#FBBEBE"/>
<path d="M143.688 47.2922C143.688 47.2922 145.231 52.531 143.688 54.0832C142.144 55.6355 141.758 56.2176 141.758 56.2176L146.196 62.2325L153.914 52.725C153.914 52.725 148.511 51.1728 149.862 46.9041L143.688 47.2922Z" fill="#FBBEBE"/>
<path d="M160.354 63.1628H155.796L155.72 62.3775L155.652 61.6517L157.75 61.3868L160.281 61.0693L160.309 61.8833L160.354 63.1628Z" fill="#FBBEBE"/>
<path d="M160.667 61.8445C160.667 61.8445 159.895 56.9937 159.316 55.0534C158.738 53.1131 158.159 53.1131 158.159 53.1131H158.159L158.159 53.1126C157.477 52.4275 155.839 52.3058 154.607 52.3249C153.743 52.3344 153.078 52.4108 153.078 52.4108L146.196 59.7109L142.731 55.0773V55.0749C142.418 55.0993 142.109 55.1529 141.807 55.2349C141.547 55.3015 141.292 55.3852 141.043 55.4855C139.969 55.9468 138.98 56.585 138.116 57.3738H138.113C137.615 57.825 137.32 58.1568 137.32 58.1568C136.557 59.7527 135.982 61.4327 135.606 63.1629H157.66L157.71 62.165V62.1631L160.667 61.8445Z" fill="#6C63FF"/>
<path d="M141.855 42.5384C145.344 40.6467 146.777 40.7268 151.116 42.5384L152.274 39.7021C152.273 39.168 152.062 38.656 151.686 38.2783C151.311 37.9007 150.802 37.6883 150.271 37.6877H142.507C141.976 37.6883 141.467 37.9007 141.091 38.2783C140.716 38.656 140.505 39.168 140.504 39.7021L141.855 42.5384Z" fill="#2F2E41"/>
<path d="M45.5289 79.6668C45.2414 79.643 44.9536 79.7077 44.7035 79.8522C44.4662 80.0556 44.2757 80.3085 44.1452 80.5932C43.5411 81.6599 42.7234 82.5888 41.7437 83.3211C41.0301 83.8468 40.1229 84.5022 40.245 85.4714C40.3094 85.7915 40.427 86.0984 40.5928 86.3791C41.2511 87.7154 43.0474 88.7481 42.8707 90.2729C43.5247 89.1718 42.65 88.6274 43.304 87.5264C43.6154 87.0021 44.1565 86.4102 44.6267 86.7395C44.7842 86.8497 44.8876 87.0475 45.0515 87.1442C45.4427 87.375 45.8588 86.9337 46.2051 86.6212C47.3991 85.5433 49.0972 85.8257 50.583 86.1615C51.2845 86.3201 52.055 86.5281 52.4696 87.2023C53.0148 88.0887 51.9516 89.046 51.683 90.0482C51.6611 90.1336 51.6601 90.2231 51.68 90.309C51.6999 90.3948 51.7403 90.4746 51.7976 90.5414C51.8548 90.6082 51.9273 90.66 52.0089 90.6925C52.0904 90.725 52.1786 90.7371 52.2658 90.7278C52.7117 90.6836 53.2398 90.6474 53.2662 90.4506C53.8271 90.4707 54.5144 90.4068 54.7548 89.8195C54.8282 89.5871 54.867 89.345 54.87 89.1012C54.9582 88.1145 55.3746 87.2145 55.6505 86.2754C55.9263 85.3364 56.0463 84.2359 55.5807 83.4033C55.4146 83.1263 55.2091 82.8752 54.9708 82.6579C52.329 80.0869 48.8555 79.6629 45.5289 79.6668Z" fill="#2F2E41"/>
<path d="M43.4454 92.1988C43.4454 92.1988 44.0199 97.0136 41.9132 97.3987C39.8065 97.7839 43.8284 104.332 43.8284 104.332L53.4043 105.488L51.1061 97.7839C51.1061 97.7839 49.5739 97.2061 50.5315 93.3543C51.4891 89.5025 43.4454 92.1988 43.4454 92.1988Z" fill="#9F616A"/>
<path d="M47.7546 95.3765C50.9277 95.3765 53.5001 92.7897 53.5001 89.5988C53.5001 86.4078 50.9277 83.821 47.7546 83.821C44.5814 83.821 42.009 86.4078 42.009 89.5988C42.009 92.7897 44.5814 95.3765 47.7546 95.3765Z" fill="#9F616A"/>
<path d="M37.8652 109.236C38.8813 105.219 40.2843 99.8067 40.2843 99.8067C40.2843 99.8067 40.8303 99.9189 41.6896 100.045C42.9449 100.233 44.2099 100.349 45.4784 100.392C47.1021 100.437 48.8114 100.33 50.1336 99.8688C50.6321 99.7079 51.0977 99.458 51.5081 99.1312C51.681 98.9912 51.8357 98.83 51.9687 98.6513C54.2666 95.5694 55.2233 107.317 55.2233 107.317L55.4013 109.236L37.8652 109.236Z" fill="#6C63FF"/>
<path d="M56.2228 121.65C56.1468 121.65 56.0708 121.652 55.9949 121.657L56.1041 121.452C56.1421 121.516 56.18 121.583 56.2228 121.65Z" fill="#FFB8B8"/>
<path d="M45.8089 81.1785C45.5773 81.1612 45.3453 81.2065 45.137 81.3095C44.9486 81.4479 44.7933 81.6269 44.6825 81.8333C44.1716 82.606 43.5058 83.2628 42.7276 83.7613C42.1467 84.1329 41.4082 84.5962 41.5076 85.2812C41.5615 85.5109 41.6576 85.7284 41.7907 85.9227C42.3284 86.8768 42.5425 87.9809 42.4005 89.0682L43.9977 86.7336C44.2512 86.363 44.6917 85.9447 45.0745 86.1774C45.2027 86.2554 45.2868 86.3951 45.4203 86.4635C45.7387 86.6266 46.0775 86.3148 46.3594 86.0938C47.3314 85.332 48.7136 85.5316 49.9232 85.7689C50.4942 85.881 51.1214 86.028 51.459 86.5045C52.0199 87.2964 51.4342 88.4406 51.7616 89.3554C51.8532 89.2909 51.931 89.2085 51.9904 89.1132C52.0498 89.0179 52.0896 88.9115 52.1074 88.8004C52.564 88.8146 53.1235 88.7695 53.3191 88.3543C53.3786 88.1916 53.4104 88.02 53.4129 87.8467C53.4847 87.1493 53.8237 86.5131 54.0483 85.8494C54.2728 85.1857 54.3705 84.4079 53.9915 83.8194C53.8529 83.6201 53.6856 83.4425 53.495 83.2926C51.3444 81.4754 48.5169 81.1758 45.8089 81.1785Z" fill="#2F2E41"/>
<path d="M45.2647 99.9977C43.9543 98.4914 43.1756 96.2951 43.14 96.1972V96.1949C43.14 96.1949 41.051 94.9917 40.4765 96.1471C39.902 97.3025 34.5393 100.191 33.9649 100.191C33.9603 100.193 33.9555 100.195 33.9506 100.196C33.7227 100.272 30.8693 101.315 30.1357 105.199C29.9365 106.536 29.8302 107.885 29.8176 109.236H45.4356C45.597 107.534 45.7181 105.942 45.7656 104.567C45.8344 102.65 45.768 101.16 45.4783 100.392C45.432 100.248 45.3596 100.115 45.2647 99.9977V99.9977Z" fill="#2F2E41"/>
<path d="M58.694 101.082C58.6845 101.036 58.6774 100.998 58.6703 100.962C58.6448 100.86 58.6014 100.763 58.5421 100.676C58.5408 100.673 58.54 100.671 58.5397 100.669C57.4335 98.945 50.3189 96.5721 50.3189 96.5721L50.053 97.4959C50.053 97.4959 50.0862 98.4078 50.1337 99.8688C50.1812 101.237 50.2381 103.084 50.2927 105.114C50.3307 106.438 50.364 107.842 50.3948 109.236H61.0371C60.4407 106.468 59.6579 103.743 58.694 101.082Z" fill="#2F2E41"/>
<path d="M158.265 109.236L159.08 105.235L159.837 104.913L159.842 104.915C159.91 104.942 160.734 105.293 160.734 106.622C160.734 106.89 160.694 107.852 160.627 109.236H158.265Z" fill="#575A89"/>
<path d="M149.713 95.2613C153.365 95.2613 156.325 92.2841 156.325 88.6116C156.325 84.939 153.365 81.9618 149.713 81.9618C146.061 81.9618 143.1 84.939 143.1 88.6116C143.1 92.2841 146.061 95.2613 149.713 95.2613Z" fill="#FFB8B8"/>
<path d="M153.846 92.4906L153.295 103.85L144.753 98.8633L145.855 92.4906H153.846Z" fill="#FFB8B8"/>
<path d="M156.326 104.405L155.766 109.236H151.281L146.415 99.833L145.043 97.1856L144.385 96.7535L145.147 96.5792L145.748 97.0161L152.468 101.912L153.546 98.6585L153.574 98.5749L153.845 97.7561L156.326 104.405Z" fill="#6C63FF"/>
<path d="M145.718 82.1004C145.718 82.1004 146.544 77.9442 151.228 78.7755L150.677 79.0525C150.677 79.0525 155.086 78.4984 154.535 80.9921C154.535 80.9921 158.116 83.2086 157.29 85.7023C156.804 87.1476 156.435 88.6302 156.188 90.1355L155.361 89.3042C155.361 89.3042 154.535 83.7628 149.575 84.3169C145.855 84.7325 144.34 86.4989 143.953 87.7717C143.774 88.3702 143.546 88.9526 143.272 89.5131L142.962 89.5813C142.962 89.5813 141.309 83.4857 145.718 82.1004Z" fill="#2F2E41"/>
<path d="M159.842 104.915L159.837 104.913L156.326 101.633V99.4176L153.615 97.2691L153.575 98.5749L153.295 107.453L148.787 101.218L145.748 97.0161L145.202 96.2641L145.335 95.5599L143.652 97.4768L137.56 102.072L137.038 102.466C136.439 103.069 135.887 103.717 135.386 104.405C135.222 104.65 134.477 106.608 133.506 109.236H160.628C160.694 107.852 160.734 106.89 160.734 106.622C160.734 105.293 159.911 104.942 159.842 104.915Z" fill="#2F2E41"/>
<path d="M96.4968 81.3072C92.0158 81.3072 88.3833 85.3611 88.3833 90.3619V96.7154H90.3264L91.4514 94.3614L91.1702 96.7154H103.66L104.683 94.5754L104.427 96.7154H105.833V91.7268C105.833 85.9722 101.653 81.3072 96.4968 81.3072Z" fill="#2F2E41"/>
<path d="M89.9488 109.236H84.6716L84.6218 104.908C84.6194 104.863 84.6194 104.82 84.6194 104.775L85.6758 103.579L85.6948 103.557L89.728 106.126L89.9488 109.236Z" fill="#D0CDE1"/>
<path d="M95.7789 95.8276C98.9689 95.8276 101.555 93.2271 101.555 90.0192C101.555 86.8114 98.9689 84.2109 95.7789 84.2109C92.5889 84.2109 90.0029 86.8114 90.0029 90.0192C90.0029 93.2271 92.5889 95.8276 95.7789 95.8276Z" fill="#FBBEBE"/>
<path d="M92.4673 93.5043C92.4673 93.5043 94.1616 102.333 93.3915 103.262C92.6213 104.192 101.555 101.559 101.555 101.559C101.555 101.559 98.6284 95.5178 100.169 92.1103L92.4673 93.5043Z" fill="#FBBEBE"/>
<path d="M108.138 99.4749H108.135C107.999 99.1855 107.764 98.9551 107.473 98.8256C106.341 98.3458 105.365 97.9781 104.563 97.6988C103.143 97.209 101.595 97.2573 100.209 97.8349C100.074 97.8898 99.9407 97.9495 99.8101 98.0163C99.8101 98.0163 94.1626 99.0977 93.4908 98.9617C93.4409 98.9521 93.3887 98.9449 93.3388 98.9402C93.2373 98.9255 93.1351 98.9167 93.0326 98.9139C91.7185 98.8525 90.415 99.1777 89.2818 99.8497C87.4278 100.931 84.6788 102.848 84.6218 104.715L84.5696 104.775L84.6218 109.236H109.41C109.46 104.961 109.489 101.748 109.489 101.53C109.489 100.855 108.138 99.4749 108.138 99.4749Z" fill="#6C63FF"/>
<path d="M98.8033 83.8015C98.4129 83.2743 97.9069 82.8446 97.3247 82.5458C96.7424 82.247 96.0995 82.0871 95.4459 82.0785H95.2866C92.2153 82.0785 89.7256 84.8733 89.7256 88.3207V88.3207H90.7547L90.9209 87.0486L91.1645 88.3207H97.2681L97.7794 87.2445L97.6516 88.3207H98.8523C99.4127 91.119 98.6076 93.9172 96.4371 96.7154H98.4826L99.5053 94.5629L99.2496 96.7154H103.149L103.916 91.7647C103.916 88.0571 101.773 84.9131 98.8033 83.8015Z" fill="#2F2E41"/>
<path d="M99.9244 84.3228C101.603 84.3228 102.963 82.9546 102.963 81.2669C102.963 79.5791 101.603 78.2109 99.9244 78.2109C98.2461 78.2109 96.8855 79.5791 96.8855 81.2669C96.8855 82.9546 98.2461 84.3228 99.9244 84.3228Z" fill="#2F2E41"/>
</g>
<defs>
<clipPath id="clip0_182_7133">
<rect width="194" height="125" fill="white"/>
</clipPath>
</defs>
</svg>

<svg width="194" height="125" fill="none" xmlns="http://www.w3.org/2000/svg"><g clip-path="url(#a)"><path d="M194 .11H.083V125H194V.11Z" fill="#E6E6E6"/><path d="M188.455 15.775H5.628v101.837h182.827V15.775Z" fill="#fff"/><path d="M193.917 0H0v8.284h193.917V0Z" fill="#6C63FF"/><path d="M6.122 5.771c.843 0 1.527-.688 1.527-1.536 0-.848-.684-1.535-1.527-1.535-.843 0-1.527.687-1.527 1.535 0 .848.684 1.536 1.527 1.536Zm5.796 0c.843 0 1.527-.688 1.527-1.536 0-.848-.684-1.535-1.527-1.535-.843 0-1.527.687-1.527 1.535 0 .848.684 1.536 1.527 1.536Zm5.796 0c.843 0 1.527-.688 1.527-1.536 0-.848-.684-1.535-1.527-1.535a1.53 1.53 0 0 0-1.527 1.535c0 .848.683 1.536 1.527 1.536Z" fill="#fff"/><path d="M63.88 24.15H28.124v39.013H63.88V24.15Zm51.04 0H79.162v39.013h35.758V24.15Zm51.039 0h-35.758v39.013h35.758V24.15ZM63.88 70.224H28.124v39.012H63.88V70.224Zm51.04 0H79.162v39.012h35.758V70.224Zm51.039 0h-35.758v39.012h35.758V70.224Z" fill="#E6E6E6"/><path d="M42.012 47.74c3.339 0 6.045-2.721 6.045-6.078s-2.706-6.079-6.045-6.079c-3.338 0-6.044 2.722-6.044 6.079 0 3.357 2.706 6.078 6.044 6.078Z" fill="#FFB9B9"/><path d="M39.651 46.316s.756 3.609.756 3.988c0 .38 3.589 2.09 3.589 2.09l3.21-.57 1.134-3.419s-1.889-2.85-1.889-3.989l-6.8 1.9Z" fill="#FFB9B9"/><path d="M36.77 36.765s1.92-4.182 5.598-3.217c3.678.965 5.757 2.413 5.917 3.86.16 1.447-.08 3.618-.08 3.618s-.4-2.975-2.958-2.332c-2.56.644-6.557.161-6.557.161l-.64 5.79s-.72-1.045-1.52-.402c-.8.643-2.318-6.192.24-7.478Z" fill="#2F2E41"/><path d="m61.184 61.702-1.51-6.84c-.757-2.28-2.644-4.177-2.644-4.177l-9.316-3.294h-.002a3.949 3.949 0 0 1-.793 2.289 3.912 3.912 0 0 1-1.977 1.387c-2.835.947-4.786-2.247-4.786-2.247l-7.874 6.042s-2.455 2.092-2.265 6.08l-.261 2.22H61.91l-.726-1.46Z" fill="#6C63FF"/><path d="M92.915 50.77c4.531 0 8.204-3.922 8.204-8.759s-3.673-8.758-8.204-8.758c-4.531 0-8.204 3.921-8.204 8.758s3.673 8.758 8.204 8.758Z" fill="#2F2E41"/><path d="M100.194 55.265c2.384 0 4.317-1.944 4.317-4.34 0-2.398-1.933-4.34-4.317-4.34-2.383 0-4.316 1.942-4.316 4.34 0 2.396 1.933 4.34 4.316 4.34Z" fill="#2F2E41"/><path d="m97.189 45.112 2.312 6.045-5.858 2.48-.514-1.172-1.798-4.098 5.858-3.255Z" fill="#9F616A"/><path d="M92.564 49.064c2.852 0 5.164-2.325 5.164-5.193 0-2.867-2.312-5.192-5.164-5.192S87.4 41.004 87.4 43.87c0 2.868 2.312 5.193 5.164 5.193Z" fill="#9F616A"/><path d="M88.344 43.302c3.245-2.178 4.216-2.699 7.936-1.857l.223-5.458-9.614 2.028 1.455 5.287Z" fill="#2F2E41"/><path d="m109.211 55.65-.143.017a.086.086 0 0 0-.011-.014c-.565-.569-3.262-1.602-5.273-2.318h-.002c-1.277-.456-2.277-.783-2.277-.783l-2.43-2.514c-.613.692-1.907 1.227-3.137 1.604-.941.287-1.899.516-2.867.688h-.003l-.503 1.616s-5.704 4.342-6.165 4.805h-.002v.005a.253.253 0 0 0-.043.181v.012a21.158 21.158 0 0 0-.442 4.214h24.841v-1.466c0-2.015-1.543-6.047-1.543-6.047Z" fill="#575A89"/><path d="M154.89 63.163h-12.283l-.677-6.71-.04-.409-.083-.81-.339-3.382-.425 3.634-.898 7.677h-2.231l.083-2.39.083-2.423.036-.976.458-13.283a9.522 9.522 0 0 1 1.882-5.846 7.356 7.356 0 0 1 2.627-2.15 7.313 7.313 0 0 1 3.306-.736 7.523 7.523 0 0 1 3.366.783 7.568 7.568 0 0 1 2.668 2.208 9.645 9.645 0 0 1 1.973 5.935l.211 8.04.283 10.838Z" fill="#2F2E41"/><path d="M146.389 48.844c2.984 0 5.402-2.432 5.402-5.432 0-3-2.418-5.433-5.402-5.433s-5.403 2.432-5.403 5.433c0 3 2.419 5.432 5.403 5.432Z" fill="#FBBEBE"/><path d="M143.688 47.292s1.543 5.239 0 6.791c-1.544 1.553-1.93 2.135-1.93 2.135l4.438 6.014 7.718-9.507s-5.403-1.552-4.052-5.82l-6.174.387Zm16.666 15.871h-4.558l-.076-.785-.068-.726 2.098-.265 2.531-.318.028.814.045 1.28Z" fill="#FBBEBE"/><path d="M160.667 61.844s-.772-4.85-1.351-6.79c-.578-1.94-1.157-1.94-1.157-1.94v-.001c-.682-.685-2.32-.807-3.552-.788-.864.01-1.529.086-1.529.086l-6.882 7.3-3.465-4.634v-.002a5.01 5.01 0 0 0-.924.16c-.26.066-.515.15-.764.25a10.469 10.469 0 0 0-2.927 1.889h-.003c-.498.451-.793.783-.793.783a22.86 22.86 0 0 0-1.714 5.006h22.054l.05-.998v-.002l2.957-.319Z" fill="#6C63FF"/><path d="M141.855 42.538c3.489-1.891 4.922-1.811 9.261 0l1.158-2.836a2.023 2.023 0 0 0-.588-1.424 1.997 1.997 0 0 0-1.415-.59h-7.764a2 2 0 0 0-1.416.59c-.375.378-.586.89-.587 1.424l1.351 2.836ZM45.529 79.667a1.416 1.416 0 0 0-.826.185 2.163 2.163 0 0 0-.558.741 8.85 8.85 0 0 1-2.401 2.728c-.714.526-1.621 1.181-1.499 2.15.064.32.182.627.348.908.658 1.336 2.454 2.37 2.278 3.894.654-1.101-.221-1.646.433-2.747.311-.524.852-1.116 1.323-.786.157.11.26.308.424.404.392.231.808-.21 1.154-.523 1.194-1.078 2.892-.795 4.378-.46.702.16 1.472.367 1.887 1.041.545.887-.518 1.844-.787 2.846a.55.55 0 0 0 .326.644.54.54 0 0 0 .257.036c.446-.044.974-.08 1-.277.561.02 1.248-.044 1.489-.631.073-.233.112-.475.115-.719.088-.986.505-1.886.78-2.826.276-.939.396-2.04-.07-2.872a3.318 3.318 0 0 0-.61-.745c-2.641-2.571-6.114-2.995-9.441-2.991Z" fill="#2F2E41"/><path d="M43.445 92.199s.575 4.815-1.532 5.2c-2.106.385 1.915 6.933 1.915 6.933l9.576 1.156-2.298-7.704s-1.532-.578-.575-4.43c.958-3.852-7.086-1.155-7.086-1.155Z" fill="#9F616A"/><path d="M47.755 95.376c3.173 0 5.745-2.586 5.745-5.777 0-3.191-2.572-5.778-5.745-5.778-3.174 0-5.746 2.587-5.746 5.778 0 3.19 2.572 5.777 5.746 5.777Z" fill="#9F616A"/><path d="M37.865 109.236c1.016-4.017 2.42-9.43 2.42-9.43s.545.113 1.405.239c1.255.188 2.52.304 3.788.347 1.624.045 3.333-.062 4.656-.523a4.351 4.351 0 0 0 1.374-.738c.173-.14.328-.301.46-.48 2.299-3.082 3.255 8.666 3.255 8.666l.178 1.919H37.865Z" fill="#6C63FF"/><path d="M56.223 121.65c-.076 0-.152.002-.228.007l.11-.205c.037.064.075.131.118.198Z" fill="#FFB8B8"/><path d="M45.809 81.178a1.298 1.298 0 0 0-.672.132 1.573 1.573 0 0 0-.455.523 6.634 6.634 0 0 1-1.954 1.928c-.581.372-1.32.835-1.22 1.52.053.23.15.447.283.642a5.07 5.07 0 0 1 .61 3.145l1.597-2.334c.253-.371.694-.79 1.077-.557.128.078.212.218.345.286.319.164.657-.148.94-.37.971-.761 2.354-.561 3.563-.324.571.112 1.198.259 1.536.735.56.792-.025 1.937.303 2.851a.839.839 0 0 0 .345-.555c.457.015 1.017-.03 1.212-.446.06-.162.091-.334.094-.507.072-.698.41-1.334.635-1.998.225-.663.322-1.441-.056-2.03a2.449 2.449 0 0 0-.497-.526c-2.15-1.818-4.978-2.117-7.686-2.115Zm-.544 18.82c-1.31-1.507-2.09-3.703-2.125-3.8v-.003s-2.089-1.203-2.663-.048c-.575 1.155-5.938 4.044-6.512 4.044a.074.074 0 0 1-.014.005c-.228.076-3.082 1.119-3.815 5.003a29.247 29.247 0 0 0-.318 4.037h15.618c.161-1.702.282-3.294.33-4.669.068-1.917.002-3.407-.288-4.175a1.22 1.22 0 0 0-.213-.394Zm13.429 1.084-.024-.12a.892.892 0 0 0-.13-.293c-1.106-1.724-8.221-4.097-8.221-4.097l-.266.924s.033.912.08 2.373c.048 1.368.105 3.215.16 5.245.038 1.324.071 2.728.102 4.122h10.642a62.755 62.755 0 0 0-2.343-8.154Z" fill="#2F2E41"/><path d="m158.265 109.236.815-4.001.757-.322.005.002c.068.027.892.378.892 1.707 0 .268-.04 1.23-.107 2.614h-2.362Z" fill="#575A89"/><path d="M149.713 95.261c3.652 0 6.612-2.977 6.612-6.65 0-3.672-2.96-6.65-6.612-6.65s-6.613 2.978-6.613 6.65c0 3.673 2.961 6.65 6.613 6.65Z" fill="#FFB8B8"/><path d="m153.846 92.49-.551 11.36-8.542-4.987 1.102-6.372h7.991Z" fill="#FFB8B8"/><path d="m156.326 104.405-.56 4.831h-4.485l-4.866-9.403-1.372-2.647-.658-.433.762-.174.601.437 6.72 4.896 1.078-3.254.028-.083.271-.819 2.481 6.649Z" fill="#6C63FF"/><path d="M145.718 82.1s.826-4.156 5.51-3.325l-.551.277s4.409-.554 3.858 1.94c0 0 3.581 2.217 2.755 4.71a28.274 28.274 0 0 0-1.102 4.433l-.827-.83s-.826-5.542-5.786-4.988c-3.72.416-5.235 2.182-5.622 3.455a11.41 11.41 0 0 1-.681 1.741l-.31.068s-1.653-6.095 2.756-7.48Zm14.124 22.815-.005-.002-3.511-3.28v-2.215l-2.711-2.149-.04 1.306-.28 8.878-4.508-6.235-3.039-4.202-.546-.752.133-.704-1.683 1.917-6.092 4.595-.522.394a16.698 16.698 0 0 0-1.652 1.939c-.164.245-.909 2.203-1.88 4.831h27.122c.066-1.384.106-2.346.106-2.614 0-1.329-.823-1.68-.892-1.707ZM96.497 81.307c-4.481 0-8.114 4.054-8.114 9.055v6.353h1.943l1.125-2.354-.28 2.354h12.489l1.023-2.14-.256 2.14h1.406v-4.988c0-5.755-4.18-10.42-9.336-10.42Z" fill="#2F2E41"/><path d="M89.949 109.236h-5.277l-.05-4.328c-.003-.045-.003-.088-.003-.133l1.057-1.196.019-.022 4.033 2.569.22 3.11Z" fill="#D0CDE1"/><path d="M95.779 95.828c3.19 0 5.776-2.6 5.776-5.809 0-3.208-2.586-5.808-5.776-5.808s-5.776 2.6-5.776 5.808c0 3.208 2.586 5.809 5.776 5.809Z" fill="#FBBEBE"/><path d="M92.467 93.504s1.695 8.829.924 9.758c-.77.93 8.164-1.703 8.164-1.703s-2.927-6.041-1.386-9.449l-7.702 1.394Z" fill="#FBBEBE"/><path d="M108.138 99.475h-.003a1.329 1.329 0 0 0-.662-.65 47.48 47.48 0 0 0-2.91-1.126 6.123 6.123 0 0 0-4.753.317s-5.647 1.082-6.32.946a1.62 1.62 0 0 0-.151-.022 2.639 2.639 0 0 0-.306-.026 6.736 6.736 0 0 0-3.751.936c-1.854 1.081-4.603 2.998-4.66 4.865l-.052.06.052 4.461h24.788c.05-4.275.079-7.488.079-7.706 0-.675-1.351-2.055-1.351-2.055Z" fill="#6C63FF"/><path d="M98.803 83.802a4.237 4.237 0 0 0-3.357-1.723h-.16c-3.07 0-5.56 2.794-5.56 6.242h1.029l.166-1.272.243 1.272h6.104l.511-1.076-.127 1.076h1.2c.56 2.798-.244 5.596-2.415 8.394h2.046l1.022-2.152-.255 2.152h3.899l.767-4.95c0-3.708-2.143-6.852-5.113-7.963Z" fill="#2F2E41"/><path d="M99.924 84.323a3.047 3.047 0 0 0 3.039-3.056 3.047 3.047 0 0 0-3.039-3.056 3.047 3.047 0 0 0-3.039 3.056 3.047 3.047 0 0 0 3.04 3.056Z" fill="#2F2E41"/></g><defs><clipPath id="a"><path fill="#fff" d="M0 0h194v125H0z"/></clipPath></defs></svg>
